ControlR.Viewer/Resources/Splash/splash.svg

<?xml version="1.0" encoding="UTF-8"?>
<svg xmlns="http://www.w3.org/2000/svg" xmlns:xlink="http://www.w3.org/1999/xlink" width="456px" height="456px" viewBox="0 0 456 455" version="1.1">
<g id="surface1">
<path style=" stroke:none;fill-rule:nonzero;fill:rgb(54.509804%,76.470588%,29.019608%);fill-opacity:1;" d="M 212.800781 106.164062 C 154.03125 106.164062 106.402344 153.695312 106.402344 212.332031 C 106.398438 270.964844 154.03125 318.5 212.800781 318.5 L 319.199219 318.5 L 319.199219 212.335938 C 319.199219 153.695312 271.570312 106.164062 212.800781 106.164062 Z M 288.804688 288.164062 L 212.800781 288.164062 C 170.820312 288.164062 136.800781 254.21875 136.800781 212.335938 C 136.800781 170.453125 170.820312 136.5 212.800781 136.5 C 254.78125 136.5 288.804688 170.449219 288.804688 212.335938 Z M 288.804688 288.164062 "/>
<path style=" stroke:none;fill-rule:nonzero;fill:rgb(54.509804%,76.470588%,29.019608%);fill-opacity:1;" d="M 380 379.164062 L 410.398438 379.164062 L 410.398438 409.5 L 380 409.5 Z M 380 379.164062 "/>
<path style=" stroke:none;fill-rule:nonzero;fill:rgb(54.509804%,76.470588%,29.019608%);fill-opacity:1;" d="M 319.199219 348.835938 L 349.601562 348.835938 L 349.601562 379.164062 L 319.199219 379.164062 Z M 319.199219 348.835938 "/>
<path style=" stroke:none;fill-rule:nonzero;fill:rgb(54.509804%,76.470588%,29.019608%);fill-opacity:1;" d="M 349.601562 318.5 L 380 318.5 L 380 348.835938 L 349.601562 348.835938 Z M 349.601562 318.5 "/>
<path style=" stroke:none;fill-rule:nonzero;fill:rgb(14.901961%,19.607843%,21.960784%);fill-opacity:1;" d="M 212.800781 348.835938 C 137.246094 348.835938 76 287.714844 76 212.335938 C 76 136.949219 137.246094 75.835938 212.800781 75.835938 C 288.355469 75.835938 349.601562 136.945312 349.601562 212.335938 L 349.601562 288.167969 L 380 288.167969 L 380 212.335938 C 380 120.199219 305.140625 45.5 212.800781 45.5 C 120.460938 45.5 45.601562 120.199219 45.601562 212.335938 C 45.601562 304.476562 120.460938 379.167969 212.800781 379.167969 L 288.804688 379.167969 L 288.804688 348.839844 Z M 212.800781 348.835938 "/>
<path style=" stroke:none;fill-rule:nonzero;fill:rgb(14.901961%,19.607843%,21.960784%);fill-opacity:1;" d="M 212.800781 166.835938 C 187.613281 166.835938 167.203125 187.199219 167.203125 212.335938 C 167.203125 237.46875 187.613281 257.835938 212.800781 257.835938 L 258.402344 257.835938 L 258.402344 212.335938 C 258.402344 187.199219 237.980469 166.835938 212.800781 166.835938 Z M 228 227.5 L 212.800781 227.5 C 204.40625 227.5 197.601562 220.707031 197.601562 212.335938 C 197.601562 203.960938 204.40625 197.167969 212.800781 197.167969 C 221.207031 197.167969 228 203.957031 228 212.335938 Z M 228 227.5 "/>
</g>
</svg>

<?xml version="1.0" encoding="UTF-8" standalone="no"?>
<svg
   width="456px"
   height="456px"
   viewBox="0 0 456 455"
   version="1.1"
   id="svg6"
   sodipodi:docname="splash.svg"
   inkscape:version="1.3.2 (091e20e, 2023-11-25, custom)"
   xmlns:inkscape="http://www.inkscape.org/namespaces/inkscape"
   xmlns:sodipodi="http://sodipodi.sourceforge.net/DTD/sodipodi-0.dtd"
   xmlns="http://www.w3.org/2000/svg"
   xmlns:svg="http://www.w3.org/2000/svg">
  <defs
     id="defs6" />
  <sodipodi:namedview
     id="namedview6"
     pagecolor="#ffffff"
     bordercolor="#000000"
     borderopacity="0.25"
     inkscape:showpageshadow="2"
     inkscape:pageopacity="0.0"
     inkscape:pagecheckerboard="0"
     inkscape:deskcolor="#d1d1d1"
     inkscape:zoom="1.3804825"
     inkscape:cx="156.46703"
     inkscape:cy="231.80301"
     inkscape:window-width="2090"
     inkscape:window-height="1463"
     inkscape:window-x="1021"
     inkscape:window-y="9"
     inkscape:window-maximized="0"
     inkscape:current-layer="svg6" />
  <g
     id="surface1"
     transform="matrix(0.98685056,0,0,0.98901099,0.998073,0.5)">
    <path
       style="fill:#8ac24a;fill-opacity:1;fill-rule:nonzero;stroke:none"
       d="m 212.80078,106.16406 c -58.76953,0 -106.39844,47.53125 -106.39844,106.16797 C 106.39844,270.96484 154.03125,318.5 212.80078,318.5 H 319.19922 V 212.33594 c 0,-58.64063 -47.62891,-106.17188 -106.39844,-106.17188 z m 76.00391,182 h -76.00391 c -41.98047,0 -76,-33.94531 -76,-75.82812 0,-41.88282 34.01953,-75.83594 76,-75.83594 41.98047,0 76.00391,33.94922 76.00391,75.83594 z m 0,0"
       id="path1" />
    <path
       style="fill:#8ac24a;fill-opacity:1;fill-rule:nonzero;stroke:none"
       d="m 380,379.16406 h 30.39844 V 409.5 H 380 Z m 0,0"
       id="path2" />
    <path
       style="fill:#8ac24a;fill-opacity:1;fill-rule:nonzero;stroke:none"
       d="m 319.19922,348.83594 h 30.40234 v 30.32812 h -30.40234 z m 0,0"
       id="path3" />
    <path
       style="fill:#8ac24a;fill-opacity:1;fill-rule:nonzero;stroke:none"
       d="M 349.60156,318.5 H 380 v 30.33594 h -30.39844 z m 0,0"
       id="path4" />
    <path
       style="fill:#233035;fill-opacity:1;fill-rule:nonzero;stroke:none"
       d="M 212.80078,348.83594 C 137.24609,348.83594 76,287.71484 76,212.33594 76,136.94922 137.24609,75.835938 212.80078,75.835938 c 75.55469,0 136.80078,61.109372 136.80078,136.500002 v 75.83203 H 380 V 212.33594 C 380,120.19922 305.14062,45.5 212.80078,45.5 c -92.33984,0 -167.199218,74.69922 -167.199218,166.83594 0,92.14062 74.859378,166.83203 167.199218,166.83203 h 76.00391 v -30.32813 z m 0,0"
       id="path5" />
    <path
       style="fill:#233035;fill-opacity:1;fill-rule:nonzero;stroke:none"
       d="m 212.80078,166.83594 c -25.1875,0 -45.59766,20.36328 -45.59766,45.5 0,25.13281 20.41016,45.5 45.59766,45.5 h 45.60156 v -45.5 c 0,-25.13672 -20.42187,-45.5 -45.60156,-45.5 z M 228,227.5 h -15.19922 c -8.39453,0 -15.19922,-6.79297 -15.19922,-15.16406 0,-8.375 6.80469,-15.16797 15.19922,-15.16797 8.40625,0 15.19922,6.78906 15.19922,15.16797 z m 0,0"
       id="path6" />
  </g>
</svg>
